icons/login-circle-fill.svg

<svg xmlns="http://www.w3.org/2000/svg" width="24" height="24" fill="none"><g clip-path="url(#a)"><g><path fill="#121212" d="M9.99999 11H2.04999C2.54999 5.947 6.81399 2 12 2C17.523 2 22 6.477 22 12C22 17.523 17.523 22 12 22C6.81499 22 2.55099 18.053 2.04999 13H9.99999V16L15 12L9.99999 8V11Z"/></g></g><defs><clipPath id="a"><rect width="24" height="24" fill="white"/></clipPath></defs></svg>

<svg width="24" height="24" fill="none" xmlns="http://www.w3.org/2000/svg"><g clip-path="url(#a)"><path d="M10 11H2.05c.5-5.053 4.764-9 9.95-9 5.523 0 10 4.477 10 10s-4.477 10-10 10c-5.185 0-9.449-3.947-9.95-9H10v3l5-4-5-4v3Z" /></g><defs><clipPath id="a"><path fill="#fff" d="M0 0h24v24H0z"/></clipPath></defs></svg>
